images/bag.svg

<svg xmlns="http://www.w3.org/2000/svg" width="100" height="100" viewBox="0 0 100 100"><path fill="#434345" d="M68.1 25.9v-8.1a16.2 16.2 0 0 0-32.4 0v8.1H15.5v72.8h72.8V25.9zm-28.4-8.1a12.2 12.2 0 1 1 24.3 0v8.1H39.7zm40.5 72.8H23.6V33.9h12.1V40a2 2 0 0 0 4 0v-6.1H64V40a2 2 0 0 0 2.1 2 2 2 0 0 0 2-2v-6.1h12.1z"/></svg>

<svg id="Layer_1" data-name="Layer 1" xmlns="http://www.w3.org/2000/svg" width="100" height="100" viewBox="0 0 100 100"><title>Bag</title><path d="M68.1,25.9V17.8a16.2,16.2,0,0,0-32.4,0v8.1H15.5V98.7H88.3V25.9ZM39.7,17.8a12.2,12.2,0,1,1,24.3,0v8.1H39.7ZM80.2,90.6H23.6V33.9H35.7V40a2,2,0,0,0,4,0V33.9H64V40a2,2,0,0,0,2.1,2,2,2,0,0,0,2-2V33.9H80.2Z" fill="#010101"/></svg>
